X: 92
M: 6/8
L: 1/8
K: D
|: f/g/ |\
afa afa | bgb bgb | afa agf | efe e2f/g/ |\
a3 f3 | ede fdB | AFA faf | ded d2 H:|

